Sources/FrostedUI/Resources/Icons.xcassets/mentionFilled12.imageset/mention-filled-12.svg

<svg width="12" height="12" viewBox="0 0 12 12" fill="none" xmlns="http://www.w3.org/2000/svg" data-fui-icon="true">
  <path
    d="M6 0C9.31355 0 11.9999 2.68644 12 6C12 9.31364 9.31361 12 6 12C2.68642 12 0 9.31362 0 6C0.00010105 2.68646 2.68648 3.74411e-05 6 0ZM6.07422 2.03906C5.46332 2.03908 4.90708 2.13434 4.40625 2.32422C3.90849 2.51128 3.47948 2.78084 3.11914 3.13281C2.76146 3.48224 2.48561 3.90073 2.29297 4.3877C2.10033 4.87206 2.00391 5.41354 2.00391 6.01074C2.00393 6.60509 2.10035 7.14461 2.29297 7.62891C2.48835 8.11318 2.76535 8.52829 3.12305 8.875C3.48357 9.22451 3.91417 9.49352 4.41504 9.68066C4.91584 9.87049 5.47448 9.96484 6.09082 9.96484C6.58604 9.96484 7.01242 9.91658 7.37012 9.82031C7.60241 9.75825 7.79803 9.70055 7.95605 9.64648C8.08412 9.60266 8.14409 9.46002 8.09473 9.33398L7.9248 8.90039C7.87408 8.7709 7.72718 8.70663 7.59473 8.74902C7.4678 8.78965 7.31625 8.83374 7.13965 8.87988C6.83421 8.95968 6.48315 8.99901 6.08691 8.99902C5.46495 8.99902 4.92674 8.87677 4.47266 8.63184C4.02133 8.38965 3.67151 8.04544 3.42383 7.59961C3.17632 7.1512 3.0528 6.62022 3.05273 6.00684C3.05273 5.39324 3.17624 4.86162 3.42383 4.41309C3.67145 3.96462 4.02265 3.61797 4.47656 3.37305C4.93063 3.12812 5.46888 3.00489 6.09082 3.00488C6.67701 3.00488 7.18494 3.11808 7.61426 3.34375C8.04353 3.56667 8.37547 3.88853 8.60938 4.30957C8.84324 4.72781 8.95992 5.23151 8.95996 5.82031C8.95996 6.2634 8.89151 6.61204 8.75391 6.86523C8.61911 7.11557 8.43166 7.24013 8.19238 7.24023C8.07957 7.24023 7.98987 7.20762 7.92383 7.1416C7.86053 7.0728 7.8291 6.95845 7.8291 6.79883V4.27441C7.82886 4.13665 7.71689 4.02457 7.5791 4.02441H7.1582C7.04535 4.02441 6.9541 4.11664 6.9541 4.22949V4.43066C6.9541 4.43206 6.95256 4.43353 6.95117 4.43359L6.94922 4.43262C6.87208 4.29842 6.73437 4.18171 6.53711 4.08301C6.33907 3.98124 6.10216 3.92974 5.82715 3.92969C5.4914 3.92969 5.18092 4.01261 4.89746 4.17773C4.61417 4.3401 4.3862 4.57569 4.21289 4.88379C4.03958 5.19194 3.95219 5.56454 3.95215 6.00195C3.95215 6.40376 4.02948 6.76474 4.18359 7.08398C4.33769 7.4004 4.5553 7.6506 4.83594 7.83496C5.11665 8.01935 5.44852 8.11133 5.83105 8.11133C6.16394 8.1113 6.43214 8.04515 6.63574 7.91309C6.83851 7.77878 6.97491 7.62446 7.04395 7.44922L7.0459 7.44727C7.04717 7.44727 7.04853 7.44799 7.04883 7.44922C7.08234 7.61353 7.18696 7.77002 7.3623 7.91797C7.53839 8.06647 7.80672 8.14058 8.16699 8.14062C8.74217 8.14062 9.19071 7.9366 9.5127 7.5293C9.83467 7.11924 9.99609 6.544 9.99609 5.80371C9.99604 5.04705 9.83348 4.38635 9.50879 3.82227C9.18409 3.25829 8.72742 2.82069 8.13867 2.50977C7.55248 2.19603 6.86406 2.03906 6.07422 2.03906ZM5.94238 4.83398C6.25331 4.83401 6.49115 4.93602 6.65625 5.13965C6.82407 5.3405 6.90816 5.62782 6.9082 6.00195C6.9082 6.37348 6.82413 6.66158 6.65625 6.86523C6.49115 7.06597 6.2532 7.16599 5.94238 7.16602C5.62052 7.16602 5.37143 7.06598 5.19531 6.86523C5.02193 6.66433 4.93457 6.37624 4.93457 6.00195C4.93461 5.62781 5.02198 5.3405 5.19531 5.13965C5.37144 4.936 5.62039 4.83398 5.94238 4.83398Z"
    fill="currentColor"
  />
</svg>

<svg xmlns="http://www.w3.org/2000/svg" width="12" height="12" fill="none" data-fui-icon="true" viewBox="0 0 12 12"><path fill="currentColor" d="M6 0a6 6 0 1 1 0 12A6 6 0 0 1 6 0m.074 2.04q-.916 0-1.668.284a3.7 3.7 0 0 0-1.287.809q-.537.525-.826 1.255a4.4 4.4 0 0 0-.29 1.623q0 .892.29 1.618.293.726.83 1.246.54.525 1.292.806.751.284 1.676.284.742 0 1.28-.145.347-.093.585-.174a.236.236 0 0 0 .139-.312l-.17-.434a.267.267 0 0 0-.33-.151q-.19.061-.455.13Q6.68 9 6.087 9q-.933 0-1.614-.367A2.56 2.56 0 0 1 3.423 7.6q-.37-.674-.37-1.593 0-.92.37-1.594a2.57 2.57 0 0 1 1.054-1.04q.681-.368 1.614-.368.88 0 1.523.339.644.335.995.966.35.627.351 1.51 0 .665-.206 1.045-.202.375-.562.375a.36.36 0 0 1-.268-.098q-.095-.105-.095-.343V4.274a.25.25 0 0 0-.25-.25h-.42a.205.205 0 0 0-.205.205v.202q0 .002-.003.003l-.002-.001q-.116-.202-.412-.35a1.54 1.54 0 0 0-.71-.153 1.82 1.82 0 0 0-1.614.954q-.26.461-.26 1.118 0 .603.23 1.082.232.474.653.751.421.276.995.276.5 0 .805-.198.305-.201.408-.464l.002-.002.003.002q.05.247.313.469.264.223.805.223.863 0 1.346-.612.483-.615.483-1.725 0-1.136-.487-1.982a3.35 3.35 0 0 0-1.37-1.312q-.88-.47-2.065-.47m-.132 2.794q.467 0 .714.306.252.3.252.862 0 .557-.252.863-.248.301-.714.301-.482 0-.747-.3-.26-.303-.26-.864t.26-.862q.264-.306.747-.306"/></svg>
